dist/images/ico-people.svg

<svg xmlns="http://www.w3.org/2000/svg" xmlns:xlink="http://www.w3.org/1999/xlink" preserveAspectRatio="none" width="155" height="85" viewBox="0 0 155 85"><defs><path d="M94.95 6q-3-3-7.4-3-3.65 0-6.2 2.05-3.7-2.75-8.55-2.75-5.75 0-9.9 3.9-1.65 1.85-2.55 3.95-.45.2-.7.45-4.15 4.15-4.15 10.15 0 3.95 1.85 7.15-.25 1.4-.25 3 0 10.65 6.45 18.25 2.8 3.2 6.25 5.3-.25.45-.25.9v2.8q0 3.7 2.8 6.45 2.75 2.8 6.45 2.8h2.75q3.7 0 6.5-2.8 2.75-2.75 2.75-6.45v-2.8q0-1.15-.25-2.3 2.1-1.6 3.95-3.9 5.55-6.7 6.45-15.25.45-.7.95-1.15 3.2-3 3.2-7.4 0-4.35-3.2-7.6-1.85-1.85-3.95-2.55v-1.85q0-4.35-3-7.35z" id="a"/><path d="M38.4 34.15q-.2-7.85-6.9-10.6-2.3-1.2-4.85-1.2H24.8q-2.3.25-4.85 1.2-6.7 2.75-6.9 10.6-.5 13.4-1.2 17.3-1.15 6.45-3.9 7.4H20.4v4.6h-7.35Q7 63.45 5.4 66.7l-3.45 6.45q-.45.9-.7 1.6v1.65q.7 2.05 6 2.3H33.1q.25-.95.95-1.85l5.5-10.4q.7-1.4 2.1-2.55-1.6-.45-3.95-.45h-5.75v-4.6H43.5q-2.8-.95-3.95-7.4-.7-3.9-1.15-17.3M108.1 84q13.4-.25 8.8-8.8l-5.55-10.35q-2.8-5.1-12-5.1H59.4q-9.45 0-12 5.1L41.85 75.2q-.9 1.65-1.15 2.8-.2 1.15 0 2.3.95 3.45 9.7 3.7h57.7m33.25-49.85q-.25-7.85-6.95-10.6-2.3-1.2-4.85-1.2h-1.8q-2.35.25-4.85 1.2-6.7 2.75-6.95 10.6-.45 13.4-1.15 17.3-1.15 6.45-3.9 7.4h12.65v4.6h-6.2q.9.95 1.4 1.85l5.5 10.4q.95 1.6 1.15 3h20.8q8.3-.25 5.3-5.55l-3.25-6.45q-1.85-3.25-7.6-3.25h-5.75v-4.6h11.5q-2.75-.95-3.9-7.4-.7-3.9-1.15-17.3z" id="b"/></defs><use xlink:href="#a"/><use xlink:href="#b"/></svg>

<svg xmlns="http://www.w3.org/2000/svg" version="1.1" xmlns:xlink="http://www.w3.org/1999/xlink" preserveAspectRatio="none" x="0px" y="0px" width="155px" height="85px" viewBox="0 0 155 85">
<defs>
<g id="Layer2_0_FILL">
<path fill="#000000" stroke="none" d="
M 94.95 6
Q 91.95 3 87.55 3 83.9 3 81.35 5.05 77.65 2.3 72.8 2.3 67.05 2.3 62.9 6.2 61.25 8.05 60.35 10.15 59.9 10.35 59.65 10.6 55.5 14.75 55.5 20.75 55.5 24.7 57.35 27.9 57.1 29.3 57.1 30.9 57.1 41.55 63.55 49.15 66.35 52.35 69.8 54.45 69.55 54.9 69.55 55.35
L 69.55 58.15
Q 69.55 61.85 72.35 64.6 75.1 67.4 78.8 67.4
L 81.55 67.4
Q 85.25 67.4 88.05 64.6 90.8 61.85 90.8 58.15
L 90.8 55.35
Q 90.8 54.2 90.55 53.05 92.65 51.45 94.5 49.15 100.05 42.45 100.95 33.9 101.4 33.2 101.9 32.75 105.1 29.75 105.1 25.35 105.1 21 101.9 17.75 100.05 15.9 97.95 15.2 97.95 14.3 97.95 13.35 97.95 9 94.95 6 Z"/>
</g>

<g id="Layer1_0_FILL">
<path fill="#000000" stroke="none" d="
M 38.4 34.15
Q 38.2 26.3 31.5 23.55 29.2 22.35 26.65 22.35
L 24.8 22.35
Q 22.5 22.6 19.95 23.55 13.25 26.3 13.05 34.15 12.55 47.55 11.85 51.45 10.7 57.9 7.95 58.85
L 20.4 58.85 20.4 63.45 13.05 63.45
Q 7 63.45 5.4 66.7
L 1.95 73.15
Q 1.5 74.05 1.25 74.75 1.25 75.7 1.25 76.4 1.95 78.45 7.25 78.7
L 33.1 78.7
Q 33.35 77.75 34.05 76.85
L 39.55 66.45
Q 40.25 65.05 41.65 63.9 40.05 63.45 37.7 63.45
L 31.95 63.45 31.95 58.85 43.5 58.85
Q 40.7 57.9 39.55 51.45 38.85 47.55 38.4 34.15
M 108.1 84
Q 121.5 83.75 116.9 75.2
L 111.35 64.85
Q 108.55 59.75 99.35 59.75
L 59.4 59.75
Q 49.95 59.75 47.4 64.85
L 41.85 75.2
Q 40.95 76.85 40.7 78 40.5 79.15 40.7 80.3 41.65 83.75 50.4 84
L 108.1 84
M 141.35 34.15
Q 141.1 26.3 134.4 23.55 132.1 22.35 129.55 22.35
L 127.75 22.35
Q 125.4 22.6 122.9 23.55 116.2 26.3 115.95 34.15 115.5 47.55 114.8 51.45 113.65 57.9 110.9 58.85
L 123.55 58.85 123.55 63.45 117.35 63.45
Q 118.25 64.4 118.75 65.3
L 124.25 75.7
Q 125.2 77.3 125.4 78.7
L 146.2 78.7
Q 154.5 78.45 151.5 73.15
L 148.25 66.7
Q 146.4 63.45 140.65 63.45
L 134.9 63.45 134.9 58.85 146.4 58.85
Q 143.65 57.9 142.5 51.45 141.8 47.55 141.35 34.15 Z"/>
</g>
</defs>

<g transform="matrix( 1, 0, 0, 1, 0,0) ">
<use xlink:href="#Layer2_0_FILL"/>
</g>

<g transform="matrix( 1, 0, 0, 1, 0,0) ">
<use xlink:href="#Layer1_0_FILL"/>
</g>
</svg>
